art/star_hollow_3_spacing.svg

<svg enable-background="new 0 0 21.775 20.762" height="24" viewBox="0 0 24 24.000001" width="24" xmlns="http://www.w3.org/2000/svg"><path d="m19.768322 10.669314c.364972-.373728.283152-.7301181-.13606-.8668949-.0074-.00289-.01103-.010595-.01839-.013485-.06251-.028897-.159962-.067425-.301538-.088616l-3.726022-.5673349c-.256492-.0385287-.541483-.177232-.79062-.3650593-.130544-.1001746-.250056-.212871-.354859-.3323099-.096529-.1126965-.178349-.2321354-.234428-.3515743l-1.666736-3.5407862c-.01839-.038529-.04045-.067425-.06068-.1030643l-.017463-.0366022c-.008274-.0173379-.019306-.022154-.02758-.0385287-.011032-.0144483-.021144-.030823-.032176-.044308-.118593-.2003492-.257411-.3207513-.402665-.3207513-.137898 0-.270281.1146228-.385197.2976341-.0092.010595-.01655.02408-.02482.034676-.01563.027933-.03585.039492-.05056.071278l-.0239.050087c-.01839.031786-.03769.051051-.05516.089579l-1.6676621 3.5388602c-.0569982.1213653-.1397375.2427307-.2381052.3573535-.1029645.1165493-.2197187.2273193-.3456663.323641-.2518951.1916802-.5387245.3313467-.7970548.3708386l-3.7269439.5663717c-.050563.00771-.1093997.031786-.1654785.049124s0 0-.0009193 0c-.045966.014448-.087336.024081-.1305442.046234-.4366794.1329244-.5258539.4941309-.1544466.8736379l2.7644105 2.82319c.3962291.406478.6426082 1.187647.5718202 1.774246l-.6315763 3.857685c-.00368.02408 0 .04334-.00184.0655l-.020225.128108c-.070788.429595.086417.681958.3714073.681958.1084804 0 .2344279-.0366.3741653-.112696l3.4171309-1.88309c.253734-.139666.589288-.208055.922084-.208055.334634 0 .670188.06935.923002.208055l3.418051 1.88309c.136979.07609.265685.112696.373246.112696.286829 0 .442195-.252363.372327-.681958l-.02758-.1676c-.00092-.01156.0018-.0183 0-.0289l-.62698-3.816266c-.0855-.589489.166398-1.398592.569982-1.812775zm-4.089158 4.86521.553433 3.378966-2.891277-1.595088c-.371407-.205165-.847618-.318824-1.342215-.318824-.491838 0-.96713.113659-1.340376.318824l-2.894035 1.584493.5506758-3.368371c.147092-.890976-.2096062-2.041057-.8283119-2.672927l-2.3350858-2.391668 3.2295891-.490278c.854053-.1300343 1.7871678-.8399253 2.1696068-1.6528806l1.438744-3.0957799 1.456211 3.0938535c.382439.8129553 1.315554 1.5228463 2.170527 1.6509542l3.230508.4999098-2.340602 2.387815c-.615947.632834-.971726 1.780025-.827392 2.671001z" fill="#393a3b" stroke-width=".941015"/></svg>

<?xml version="1.0" encoding="UTF-8" standalone="no"?>
<svg
   xmlns:dc="http://purl.org/dc/elements/1.1/"
   xmlns:cc="http://creativecommons.org/ns#"
   xmlns:rdf="http://www.w3.org/1999/02/22-rdf-syntax-ns#"
   xmlns:svg="http://www.w3.org/2000/svg"
   xmlns="http://www.w3.org/2000/svg"
   xmlns:sodipodi="http://sodipodi.sourceforge.net/DTD/sodipodi-0.dtd"
   xmlns:inkscape="http://www.inkscape.org/namespaces/inkscape"
   version="1.0"
   id="Ebene_1"
   x="0px"
   y="0px"
   width="24"
   height="24"
   viewBox="0 0 24 24.000001"
   enable-background="new 0 0 21.775 20.762"
   xml:space="preserve"
   sodipodi:docname="star_hollow_3_spacing.svg"
   inkscape:version="1.0.2 (e86c8708, 2021-01-15)"><metadata
   id="metadata35"><rdf:RDF><cc:Work
       rdf:about=""><dc:format>image/svg+xml</dc:format><dc:type
         rdf:resource="http://purl.org/dc/dcmitype/StillImage" /><dc:title></dc:title></cc:Work></rdf:RDF></metadata><defs
   id="defs33" /><sodipodi:namedview
   pagecolor="#ffffff"
   bordercolor="#666666"
   borderopacity="1"
   objecttolerance="10"
   gridtolerance="10"
   guidetolerance="10"
   inkscape:pageopacity="0"
   inkscape:pageshadow="2"
   inkscape:window-width="1068"
   inkscape:window-height="789"
   id="namedview31"
   showgrid="false"
   inkscape:zoom="16"
   inkscape:cx="10.8875"
   inkscape:cy="10.381"
   inkscape:window-x="0"
   inkscape:window-y="23"
   inkscape:window-maximized="0"
   inkscape:current-layer="Ebene_1" />
<path
   fill="#393a3b"
   d="m 19.768322,10.669314 c 0.364972,-0.373728 0.283152,-0.7301181 -0.13606,-0.8668949 -0.0074,-0.00289 -0.01103,-0.010595 -0.01839,-0.013485 -0.06251,-0.028897 -0.159962,-0.067425 -0.301538,-0.088616 L 15.586312,9.1329832 C 15.32982,9.0944545 15.044829,8.9557512 14.795692,8.7679239 14.665148,8.6677493 14.545636,8.5550529 14.440833,8.435614 14.344304,8.3229175 14.262484,8.2034786 14.206405,8.0840397 L 12.539669,4.5432535 c -0.01839,-0.038529 -0.04045,-0.067425 -0.06068,-0.1030643 L 12.461526,4.403587 C 12.453252,4.3862491 12.44222,4.381433 12.433946,4.3650583 12.422914,4.35061 12.412802,4.3342353 12.40177,4.3207503 12.283177,4.1204011 12.144359,3.999999 11.999105,3.999999 c -0.137898,0 -0.270281,0.1146228 -0.385197,0.2976341 -0.0092,0.010595 -0.01655,0.02408 -0.02482,0.034676 -0.01563,0.027933 -0.03585,0.039492 -0.05056,0.071278 l -0.0239,0.050087 c -0.01839,0.031786 -0.03769,0.051051 -0.05516,0.089579 L 9.7918059,8.0821133 C 9.7348077,8.2034786 9.6520684,8.324844 9.5537007,8.4394668 9.4507362,8.5560161 9.333982,8.6667861 9.2080344,8.7631078 8.9561393,8.954788 8.6693099,9.0944545 8.4109796,9.1339464 L 4.6840357,9.7003181 c -0.050563,0.00771 -0.1093997,0.031786 -0.1654785,0.049124 v 0 c 0,0 0,0 -9.193e-4,0 -0.045966,0.014448 -0.087336,0.024081 -0.1305442,0.046234 C 3.9504143,9.9286005 3.8612398,10.289807 4.2326471,10.669314 l 2.7644105,2.82319 c 0.3962291,0.406478 0.6426082,1.187647 0.5718202,1.774246 l -0.6315763,3.857685 c -0.00368,0.02408 0,0.04334 -0.00184,0.0655 l -0.020225,0.128108 c -0.070788,0.429595 0.086417,0.681958 0.3714073,0.681958 0.1084804,0 0.2344279,-0.0366 0.3741653,-0.112696 l 3.4171309,-1.88309 c 0.253734,-0.139666 0.589288,-0.208055 0.922084,-0.208055 0.334634,0 0.670188,0.06935 0.923002,0.208055 l 3.418051,1.88309 c 0.136979,0.07609 0.265685,0.112696 0.373246,0.112696 0.286829,0 0.442195,-0.252363 0.372327,-0.681958 l -0.02758,-0.1676 c -9.2e-4,-0.01156 0.0018,-0.0183 0,-0.0289 l -0.62698,-3.816266 c -0.0855,-0.589489 0.166398,-1.398592 0.569982,-1.812775 z m -4.089158,4.86521 0.553433,3.378966 -2.891277,-1.595088 c -0.371407,-0.205165 -0.847618,-0.318824 -1.342215,-0.318824 -0.491838,0 -0.96713,0.113659 -1.340376,0.318824 L 7.764694,18.902895 8.3153698,15.534524 C 8.4624618,14.643548 8.1057636,13.493467 7.4870579,12.861597 L 5.1519721,10.469929 8.3815612,9.979651 C 9.2356142,9.8496167 10.168729,9.1397257 10.551168,8.3267704 l 1.438744,-3.0957799 1.456211,3.0938535 c 0.382439,0.8129553 1.315554,1.5228463 2.170527,1.6509542 l 3.230508,0.4999098 -2.340602,2.387815 c -0.615947,0.632834 -0.971726,1.780025 -0.827392,2.671001 z"
   id="path28"
   style="stroke-width:0.941015" />
</svg>
